X:170
T:Scott's Breakdo
R:reel
C:Bruce Osborne - Dec. 2002
Z:abc by bosborne@kos.net
M:2/4
L:1/8
K:Bb
F/E/|D/B,/D/F/ B/d/c/B/|A/F/A/c/ BA/B/|c/A/F/A/ c/e/d/c/|B/A/B/c/ dF/E/|\
D/B,/D/F/ B/d/c/B/|A/F/A/c/ BA/B/|c/A/F/A/ c/e/d/c/|B/A/d/c/ B:|
|:D/E/|F/B,/A,/B,/ F/B,/D/F/|B/A/B/c/ dc/d/|e/c/A/F/ E/F/A/c/|B/A/B/c/ dD/E/|\
F/B,/A,/B,/ F/B,/D/F/|B/A/B/c/ dc/d/|e/c/A/F/ E/F/A/c/|B/A/d/c/ B:|
